src/shared/_assets/icons/terminal.svg

<svg width="17" height="14" viewBox="0 0 17 14" fill="none" xmlns="http://www.w3.org/2000/svg">
<path d="M1.66667 13.3333C1.20833 13.3333 0.815972 13.1701 0.489583 12.8438C0.163194 12.5174 0 12.125 0 11.6667V1.66667C0 1.20833 0.163194 0.815972 0.489583 0.489583C0.815972 0.163194 1.20833 0 1.66667 0H15C15.4583 0 15.8507 0.163194 16.1771 0.489583C16.5035 0.815972 16.6667 1.20833 16.6667 1.66667V11.6667C16.6667 12.125 16.5035 12.5174 16.1771 12.8438C15.8507 13.1701 15.4583 13.3333 15 13.3333H1.66667ZM1.66667 11.6667H15V3.33333H1.66667V11.6667ZM4.58333 10.8333L3.41667 9.66667L5.5625 7.5L3.39583 5.33333L4.58333 4.16667L7.91667 7.5L4.58333 10.8333ZM8.33333 10.8333V9.16667H13.3333V10.8333H8.33333Z" fill="#A1A1A1"/>
</svg>

<svg xmlns="http://www.w3.org/2000/svg" fill="none" viewBox="0 0 17 14"><path fill="currentColor" d="M1.667 13.333q-.688 0-1.177-.49A1.6 1.6 0 0 1 0 11.668v-10Q0 .979.49.49.979 0 1.667 0H15q.687 0 1.177.49.49.489.49 1.177v10q0 .687-.49 1.177t-1.177.49zm0-1.666H15V3.333H1.667zm2.916-.834L3.417 9.667 5.563 7.5 3.396 5.333l1.187-1.166L7.917 7.5zm3.75 0V9.167h5v1.666z"/></svg>
